X:1
T:A minor Oliver Brownson, 1783
T:Isaac Watts, 1719 (Psalm 69, Part 4)      88. 88. (L. M.)
T:Cambridge
T:Transcribed from Select Harmony, 1783.
%%score [ 1 2 3 4 ]
L:1/8
Q:1/4=130
M:4/4
K:C
V:1 treble nm="Tr." snm="Tr."
V:2 treble nm="C." snm="C."
V:3 treble-8 nm="T." snm="T."
V:4 bass nm="B." snm="B."
V:1
"^2. In long complaints he spends his  breath, While hosts  of hell, and powers of death,     And  all  the         sons      of   malice,""^1. Deep in   our    hearts    let    us     re   –    cord   The dee  –  per sorrows of  our  Lord;        Behold   the         ri   –  sing  billows" A8 | %1
 A4 ^G4 | (A3 B c2) c2 | A4 d4 | B8 | G4 (c3 B | A2) d2 G2 G2 | E4 ^G4 | A8 | z4 c4 | A4 (B3 c) | %11
 (d2 e2 A2) A2 | G4 A4 | %13
"^1. roll,     To     o  – ver–whelm his ho      –      –         ly     soul. _____         To     o   –  ver – whelm his ho        –          –          –        ly     soul.""^2. join     To     ex   –  e  –cute their cursed ______    de– sign. _____          To   ex       –        e – cute their cursed _____________  de – sign." B6 B2 | %14
 (B4 c2) c2 | B2 G2 (A4 | AG) F2 E4- | E2 z4 c2 | (c2 A2 B2) B2 | d2 d2 (B4- | B2 cB A2) ^G2 | %21
 A8 |] %22
V:2
"^3. Yet,   gracious   God,        thy  power  and  love   Has  made  the curse a blessing prove;   Those dreadful  sufferings   of   thy" E8 | %1
 E4 E4 | E6 G2 | F4 F4 | E8 | E4 (E4 | F2) D2 E2 E2 | E4 E4 | E8 | z4 E4 | E4 F4 | (G4 F2) D2 | %12
 E4 E4 | %13
"^3. Son,     A – toned      for sins which we ________  had done. _______________   Atoned for sins which we _____________    had  done." E6 E2 | %14
 E6 E2 | E2 E2 (D3 C | D2) D2 E4- | E8- | E2 E2 G2 G2 | G2 F2 E4- | E6 E2 | E8 |] %22
V:3
"^4. The  pangs  of  our         ex – pi  –  ring    Lord  The ho     –    nors of  thy law restored;         His   sorrows     made    thy justice""^5. O       for    his    sake        our   guilt  for –  give,  And let  ___the  mourning sinner live;        The  Lord will   hear      us   in  his" E8 | %1
 A4 B4 | (c3 d e2) e2 | (d2 c2) (B2 A2) | G8 | B4 (A3 G | A2) B2 c2 G2 | A4 B4 | A8 | z4 e4 | %10
 c4 d4 | (B2 c2 A2) A2 | B4 c4 | %13
"^4. known, And paid  for    follies  not _________    his   own. _____         And  paid          for  follies  not ___________________  his    own.""^5. name, Nor  shall    our   hope be turned ___     to  shame. _____         Nor  shall         our  hope be turned _____________  to  shame." B6 B2 | %14
 (e4 c2) A2 | B2 B2 (A2 G2 | A2) B2 c4- | c2 z4 A2 | (A2 c2 B2) d2 | d2 B2 (e4 | e>fed c2) B2 | %21
 A8 |] %22
V:4
 A,,8 | A,,4 E,4 | C,6 C,2 | D,4 D,4 | E,8 | E,4 (A,,4 | D,2) D,2 C,2 C,2 | C,4 E,4 | A,,8 | %9
 z4 A,4 | A,4 D,4 | (G,2 E,2 F,2) F,2 | E,4 A,,4 | E,6 E,2 | (E,4 A,2) A,2 | %15
"^___________________________________________________________________\nEdited by B. C. Johnston, 2016\n   1. Measure 6, \nTreble\n: G# changed to G.\n   2. Measure 21, Treble: G changed to G#." G,2 E,2 (F,2 E,2 | %16
 D,2) D,2 C,4- | C,8- | C,2 C,2 G,2 G,2 | G,2 D,2 E,4- | E,6 E,2 | A,,8 |] %22

